static/Acki Nacki Icon - black.svg

<svg xmlns="http://www.w3.org/2000/svg" width="516" height="516" fill="none" viewBox="0 0 516 516"><path fill="#0c0a0c" d="M258 0c142.49 0 258 115.51 258 258S400.49 516 258 516 0 400.49 0 258 115.51 0 258 0m142.802 293.841c-5.977-6.716-15.385-6.38-21.015.75-37.504 47.504-61.33 77.125-120.316 77.125s-82.813-29.621-120.317-77.125c-5.629-7.131-15.038-7.466-21.014-.75-5.977 6.716-6.259 17.941-.629 25.072 42.887 54.324 74.443 110.851 141.96 110.851 67.516 0 99.072-56.527 141.96-110.851 5.629-7.131 5.347-18.356-.629-25.072m41.221-92.974c-20.605-37.091-66.239-49.799-101.928-28.385-35.689 21.415-47.918 68.844-27.314 105.936 2.557 4.603 6.127 8.097 10.368 10.781.1.063.231-.002.247-.122 2.357-16.788 11.816-32.333 27.05-41.474 26.424-15.855 60.211-6.446 75.467 21.016a58.8 58.8 0 0 1 7.077 22.367.16.16 0 0 0 .283.089c20.709-24.293 25.224-60.554 8.75-90.208M191.219 180.75c-29.14-30.285-76.386-30.285-105.526 0-28.566 29.689-29.128 77.463-1.686 107.864.132.146.371.079.418-.117 3.49-14.603 12.466-27.77 25.994-35.888 26.423-15.855 60.211-6.446 75.467 21.016a58.8 58.8 0 0 1 5.954 15.589.24.24 0 0 0 .414.111c28.099-30.363 27.755-78.653-1.035-108.575"/></svg>

<svg width="516" height="516" viewBox="0 0 516 516" fill="none" xmlns="http://www.w3.org/2000/svg">
<g filter="url(#filter0_ii_11330_7961)">
<path d="M258 0C400.49 0 516 115.51 516 258C516 400.49 400.49 516 258 516C115.51 516 0 400.49 0 258C4.8703e-05 115.51 115.51 0.000106223 258 0ZM400.796 293.85C394.819 287.133 385.41 287.469 379.78 294.6C342.277 342.104 318.45 371.726 259.464 371.726C200.478 371.725 176.651 342.104 139.147 294.6C133.518 287.47 124.109 287.133 118.133 293.85C112.156 300.566 111.875 311.791 117.504 318.922C160.391 373.246 191.948 429.772 259.464 429.772C326.98 429.772 358.537 373.246 401.425 318.922C407.054 311.791 406.773 300.566 400.796 293.85ZM442.023 200.875C421.418 163.783 375.784 151.074 340.095 172.489C304.406 193.904 292.178 241.334 312.783 278.426C315.341 283.03 318.91 286.525 323.152 289.209C323.252 289.272 323.384 289.206 323.401 289.086C325.758 272.298 335.218 256.752 350.452 247.61C376.876 231.755 410.664 241.165 425.92 268.627C429.862 275.724 432.181 283.332 432.996 290.986C433.012 291.131 433.187 291.185 433.281 291.075C453.985 266.782 458.495 230.526 442.023 200.875ZM191.218 180.75C162.078 150.465 114.832 150.465 85.6924 180.75C57.1245 210.441 56.5628 258.219 84.0098 288.62C84.1421 288.767 84.3832 288.699 84.4307 288.503C87.9211 273.899 96.8962 260.731 110.425 252.613C136.848 236.758 170.637 246.167 185.893 273.629C188.666 278.622 190.635 283.868 191.843 289.205C191.887 289.399 192.124 289.463 192.26 289.317C220.352 258.954 220.005 210.67 191.218 180.75Z" fill="url(#paint0_linear_11330_7961)"/>
<path d="M258 0C400.49 0 516 115.51 516 258C516 400.49 400.49 516 258 516C115.51 516 0 400.49 0 258C4.8703e-05 115.51 115.51 0.000106223 258 0ZM400.796 293.85C394.819 287.133 385.41 287.469 379.78 294.6C342.277 342.104 318.45 371.726 259.464 371.726C200.478 371.725 176.651 342.104 139.147 294.6C133.518 287.47 124.109 287.133 118.133 293.85C112.156 300.566 111.875 311.791 117.504 318.922C160.391 373.246 191.948 429.772 259.464 429.772C326.98 429.772 358.537 373.246 401.425 318.922C407.054 311.791 406.773 300.566 400.796 293.85ZM442.023 200.875C421.418 163.783 375.784 151.074 340.095 172.489C304.406 193.904 292.178 241.334 312.783 278.426C315.341 283.03 318.91 286.525 323.152 289.209C323.252 289.272 323.384 289.206 323.401 289.086C325.758 272.298 335.218 256.752 350.452 247.61C376.876 231.755 410.664 241.165 425.92 268.627C429.862 275.724 432.181 283.332 432.996 290.986C433.012 291.131 433.187 291.185 433.281 291.075C453.985 266.782 458.495 230.526 442.023 200.875ZM191.218 180.75C162.078 150.465 114.832 150.465 85.6924 180.75C57.1245 210.441 56.5628 258.219 84.0098 288.62C84.1421 288.767 84.3832 288.699 84.4307 288.503C87.9211 273.899 96.8962 260.731 110.425 252.613C136.848 236.758 170.637 246.167 185.893 273.629C188.666 278.622 190.635 283.868 191.843 289.205C191.887 289.399 192.124 289.463 192.26 289.317C220.352 258.954 220.005 210.67 191.218 180.75Z" fill="url(#paint1_radial_11330_7961)" fill-opacity="0.12"/>
<path d="M258 0C400.49 0 516 115.51 516 258C516 400.49 400.49 516 258 516C115.51 516 0 400.49 0 258C4.8703e-05 115.51 115.51 0.000106223 258 0ZM400.796 293.85C394.819 287.133 385.41 287.469 379.78 294.6C342.277 342.104 318.45 371.726 259.464 371.726C200.478 371.725 176.651 342.104 139.147 294.6C133.518 287.47 124.109 287.133 118.133 293.85C112.156 300.566 111.875 311.791 117.504 318.922C160.391 373.246 191.948 429.772 259.464 429.772C326.98 429.772 358.537 373.246 401.425 318.922C407.054 311.791 406.773 300.566 400.796 293.85ZM442.023 200.875C421.418 163.783 375.784 151.074 340.095 172.489C304.406 193.904 292.178 241.334 312.783 278.426C315.341 283.03 318.91 286.525 323.152 289.209C323.252 289.272 323.384 289.206 323.401 289.086C325.758 272.298 335.218 256.752 350.452 247.61C376.876 231.755 410.664 241.165 425.92 268.627C429.862 275.724 432.181 283.332 432.996 290.986C433.012 291.131 433.187 291.185 433.281 291.075C453.985 266.782 458.495 230.526 442.023 200.875ZM191.218 180.75C162.078 150.465 114.832 150.465 85.6924 180.75C57.1245 210.441 56.5628 258.219 84.0098 288.62C84.1421 288.767 84.3832 288.699 84.4307 288.503C87.9211 273.899 96.8962 260.731 110.425 252.613C136.848 236.758 170.637 246.167 185.893 273.629C188.666 278.622 190.635 283.868 191.843 289.205C191.887 289.399 192.124 289.463 192.26 289.317C220.352 258.954 220.005 210.67 191.218 180.75Z" fill="url(#paint2_radial_11330_7961)" fill-opacity="0.1"/>
<path d="M258 0C400.49 0 516 115.51 516 258C516 400.49 400.49 516 258 516C115.51 516 0 400.49 0 258C4.8703e-05 115.51 115.51 0.000106223 258 0ZM400.796 293.85C394.819 287.133 385.41 287.469 379.78 294.6C342.277 342.104 318.45 371.726 259.464 371.726C200.478 371.725 176.651 342.104 139.147 294.6C133.518 287.47 124.109 287.133 118.133 293.85C112.156 300.566 111.875 311.791 117.504 318.922C160.391 373.246 191.948 429.772 259.464 429.772C326.98 429.772 358.537 373.246 401.425 318.922C407.054 311.791 406.773 300.566 400.796 293.85ZM442.023 200.875C421.418 163.783 375.784 151.074 340.095 172.489C304.406 193.904 292.178 241.334 312.783 278.426C315.341 283.03 318.91 286.525 323.152 289.209C323.252 289.272 323.384 289.206 323.401 289.086C325.758 272.298 335.218 256.752 350.452 247.61C376.876 231.755 410.664 241.165 425.92 268.627C429.862 275.724 432.181 283.332 432.996 290.986C433.012 291.131 433.187 291.185 433.281 291.075C453.985 266.782 458.495 230.526 442.023 200.875ZM191.218 180.75C162.078 150.465 114.832 150.465 85.6924 180.75C57.1245 210.441 56.5628 258.219 84.0098 288.62C84.1421 288.767 84.3832 288.699 84.4307 288.503C87.9211 273.899 96.8962 260.731 110.425 252.613C136.848 236.758 170.637 246.167 185.893 273.629C188.666 278.622 190.635 283.868 191.843 289.205C191.887 289.399 192.124 289.463 192.26 289.317C220.352 258.954 220.005 210.67 191.218 180.75Z" fill="url(#paint3_radial_11330_7961)" fill-opacity="0.32"/>
<path d="M258 0C400.49 0 516 115.51 516 258C516 400.49 400.49 516 258 516C115.51 516 0 400.49 0 258C4.8703e-05 115.51 115.51 0.000106223 258 0ZM400.796 293.85C394.819 287.133 385.41 287.469 379.78 294.6C342.277 342.104 318.45 371.726 259.464 371.726C200.478 371.725 176.651 342.104 139.147 294.6C133.518 287.47 124.109 287.133 118.133 293.85C112.156 300.566 111.875 311.791 117.504 318.922C160.391 373.246 191.948 429.772 259.464 429.772C326.98 429.772 358.537 373.246 401.425 318.922C407.054 311.791 406.773 300.566 400.796 293.85ZM442.023 200.875C421.418 163.783 375.784 151.074 340.095 172.489C304.406 193.904 292.178 241.334 312.783 278.426C315.341 283.03 318.91 286.525 323.152 289.209C323.252 289.272 323.384 289.206 323.401 289.086C325.758 272.298 335.218 256.752 350.452 247.61C376.876 231.755 410.664 241.165 425.92 268.627C429.862 275.724 432.181 283.332 432.996 290.986C433.012 291.131 433.187 291.185 433.281 291.075C453.985 266.782 458.495 230.526 442.023 200.875ZM191.218 180.75C162.078 150.465 114.832 150.465 85.6924 180.75C57.1245 210.441 56.5628 258.219 84.0098 288.62C84.1421 288.767 84.3832 288.699 84.4307 288.503C87.9211 273.899 96.8962 260.731 110.425 252.613C136.848 236.758 170.637 246.167 185.893 273.629C188.666 278.622 190.635 283.868 191.843 289.205C191.887 289.399 192.124 289.463 192.26 289.317C220.352 258.954 220.005 210.67 191.218 180.75Z" fill="url(#paint4_radial_11330_7961)" fill-opacity="0.32"/>
</g>
<defs>
<filter id="filter0_ii_11330_7961" x="0" y="0" width="516" height="521.683" filterUnits="userSpaceOnUse" color-interpolation-filters="sRGB">
<feFlood flood-opacity="0" result="BackgroundImageFix"/>
<feBlend mode="normal" in="SourceGraphic" in2="BackgroundImageFix" result="shape"/>
<feColorMatrix in="SourceAlpha" type="matrix" values="0 0 0 0 0 0 0 0 0 0 0 0 0 0 0 0 0 0 127 0" result="hardAlpha"/>
<feOffset dy="5.71998"/>
<feGaussianBlur stdDeviation="2.84145"/>
<feComposite in2="hardAlpha" operator="arithmetic" k2="-1" k3="1"/>
<feColorMatrix type="matrix" values="0 0 0 0 1 0 0 0 0 1 0 0 0 0 1 0 0 0 1 0"/>
<feBlend mode="normal" in2="shape" result="effect1_innerShadow_11330_7961"/>
<feColorMatrix in="SourceAlpha" type="matrix" values="0 0 0 0 0 0 0 0 0 0 0 0 0 0 0 0 0 0 127 0" result="hardAlpha"/>
<feOffset dy="17.2429"/>
<feGaussianBlur stdDeviation="2.11754"/>
<feComposite in2="hardAlpha" operator="arithmetic" k2="-1" k3="1"/>
<feColorMatrix type="matrix" values="0 0 0 0 1 0 0 0 0 1 0 0 0 0 1 0 0 0 1 0"/>
<feBlend mode="normal" in2="effect1_innerShadow_11330_7961" result="effect2_innerShadow_11330_7961"/>
</filter>
<linearGradient id="paint0_linear_11330_7961" x1="258" y1="0" x2="258" y2="516" gradientUnits="userSpaceOnUse">
<stop offset="0.05" stop-color="#262729"/>
<stop offset="0.6" stop-color="#0C0A0C"/>
</linearGradient>
<radialGradient id="paint1_radial_11330_7961" cx="0" cy="0" r="1" gradientTransform="matrix(17.7772 70.1445 -254.754 68.5333 232.553 50.1789)" gradientUnits="userSpaceOnUse">
<stop stop-color="white"/>
<stop offset="0.581272" stop-color="white" stop-opacity="0"/>
<stop offset="1" stop-color="white" stop-opacity="0"/>
</radialGradient>
<radialGradient id="paint2_radial_11330_7961" cx="0" cy="0" r="1" gradientTransform="matrix(-0.0524632 77.1132 -225.297 -0.162702 257.948 61.1359)" gradientUnits="userSpaceOnUse">
<stop stop-color="white"/>
<stop offset="1" stop-color="white" stop-opacity="0"/>
</radialGradient>
<radialGradient id="paint3_radial_11330_7961" cx="0" cy="0" r="1" gradientTransform="matrix(11.3471 35.4619 -61.6573 20.9421 137.615 263.34)" gradientUnits="userSpaceOnUse">
<stop stop-color="white"/>
<stop offset="1" stop-color="white" stop-opacity="0"/>
</radialGradient>
<radialGradient id="paint4_radial_11330_7961" cx="0" cy="0" r="1" gradientTransform="matrix(2.64766 38.9692 -79.6812 5.74658 378.553 258.274)" gradientUnits="userSpaceOnUse">
<stop stop-color="white"/>
<stop offset="1" stop-color="white" stop-opacity="0"/>
</radialGradient>
</defs>
</svg>
